X: 69
T: O'CAROLAN'S LAMENT   #2
R: air
%S: s:2 b:16(6+6)
B: O'Neill's 1850 #69
Z: 1999 John Chambers <jc@trillian.mit.edu>
Q: "Mournful"
M: 3/4
L: 1/8
K: Dm
(FG) |: A2 (A>B AG) | A2 d2 [1 (F>G) | A2 (A>B A>^F) | G4 (=F>G) :|[2 (d>e) | f2 e>d ^ce | d4 |]
|: (d>e) | f2 (e>d ^ce) | d=c A2 [1 (d>e) | f2 (e>d ^ce) | d4 :|[2 ^FG | A2 G=F (E>F) | D4 |]
